assets/icons/qvision/format_textdirection_l_to_r.svg

<svg xmlns="http://www.w3.org/2000/svg" height="24" viewBox="0 0 24 24" width="24"><path d="M0 0h24v24H0z" fill="none"/><path d="M9 10v5h2V4h2v11h2V4h2V2H9C6.79 2 5 3.79 5 6s1.79 4 4 4zm12 8l-4-4v3H5v2h12v3l4-4z"/></svg>

<svg width="24" height="24" viewBox="0 0 24 24" fill="none" xmlns="http://www.w3.org/2000/svg">
<g clip-path="url(#clip0_147_2637)">
<path d="M9 10V15H11V4H13V15H15V4H17V2H9C6.79 2 5 3.79 5 6C5 8.21 6.79 10 9 10ZM21 18L17 14V17H5V19H17V22L21 18Z" fill="#323232"/>
</g>
<defs>
<clipPath id="clip0_147_2637">
<rect width="24" height="24" fill="white"/>
</clipPath>
</defs>
</svg>
